icons/sign-out-17.svg

<svg width="16" height="17" viewBox="0 0 16 17" fill="none" xmlns="http://www.w3.org/2000/svg">
<path fill-rule="evenodd" clip-rule="evenodd" d="M2.42847 3.66638C2.42847 2.83795 3.10004 2.16638 3.92847 2.16638H6.07132C6.42636 2.16638 6.71418 2.4542 6.71418 2.80924C6.71418 3.16428 6.42636 3.4521 6.07132 3.4521H3.92847C3.81012 3.4521 3.71418 3.54804 3.71418 3.66638V12.6664C3.71418 12.7848 3.81012 12.8807 3.92847 12.8807H6.07132C6.42636 12.8807 6.71418 13.1685 6.71418 13.5235C6.71418 13.8786 6.42636 14.1664 6.07132 14.1664H3.92847C3.10004 14.1664 2.42847 13.4948 2.42847 12.6664V3.66638ZM11.3764 7.52352H6.49991C6.14488 7.52352 5.85706 7.81134 5.85706 8.16638C5.85706 8.52143 6.14488 8.80924 6.49991 8.80924H11.3764L9.68821 10.4976C9.43715 10.7486 9.43715 11.1556 9.68821 11.4066C9.93927 11.6577 10.3462 11.6577 10.5973 11.4066L13.383 8.62095C13.6341 8.3699 13.6341 7.96286 13.383 7.71181L10.5973 4.9261C10.3462 4.67505 9.93927 4.67505 9.68821 4.9261C9.43715 5.17715 9.43715 5.58419 9.68821 5.83524L11.3764 7.52352Z" fill="#272431"/>
</svg>

<svg xmlns="http://www.w3.org/2000/svg" width="16" height="17" viewBox="0 0 16 17"><path fill-rule="evenodd" d="M2.428 3.666a1.5 1.5 0 011.5-1.5h2.143a.643.643 0 010 1.286H3.928a.214.214 0 00-.214.214v9c0 .119.096.215.214.215h2.143a.643.643 0 110 1.285H3.928a1.5 1.5 0 01-1.5-1.5v-9zm8.948 3.858H6.5a.643.643 0 000 1.285h4.876l-1.688 1.689a.643.643 0 10.91.909l2.785-2.786a.643.643 0 000-.91l-2.786-2.785a.643.643 0 10-.909.91l1.688 1.688z"/></svg>
